X:1
T:Top Sails Shiver in the Wind. Ya.57
T:Top Sails Shiver in the Wind. Ya.57
T:Thomas Augustine Arne  (1710-1778)
C:Thomas Augustine Arne  (1710-1778)
L:1/8
Q:1/4=100
M:2/2
K:D
V:1 treble 
V:1
 A | d2 d2 d>e f>e | d2 D2 D2 de | f2 f2 f>gag | !fermata!f3 e z a>g | f2 f>e d2 b>a | %6
 g2 g>f e2 A2 | d>c dg | f>a (a/g/f/e/) | d2 z2 z2 A2 | (dA) (Bd) (cB) (AG) | (eB) (cd) (dc) (BA) | %12
 (fc) (de) d3 d | (ba) (gf) (fe) (f>g) | (a>f) (dA) (FA) (df) | (af) (ba) g2 g3/2a/4b/4 | %16
 a2 bc'/4d'/4 a/ f3/2 ed | fa{ab} a/g/f/e/ d2 :| %18

